package/converter/svg/regular/rectangle-terminal.svg

<svg xmlns="http://www.w3.org/2000/svg" viewBox="0 0 512 512"><!-- Font Awesome Pro 6.0.0-alpha2 by @fontawesome - https://fontawesome.com License - https://fontawesome.com/license (Commercial License) --><path d="M448 32H64C28.654 32 0 60.656 0 96V416C0 451.344 28.654 480 64 480H448C483.346 480 512 451.344 512 416V96C512 60.656 483.346 32 448 32ZM464 416C464 424.824 456.822 432 448 432H64C55.178 432 48 424.824 48 416V96C48 87.176 55.178 80 64 80H448C456.822 80 464 87.176 464 96V416ZM240 256C240 249.281 237.172 242.844 232.219 238.312L136.219 150.312C126.453 141.375 111.266 142 102.312 151.781S94.016 176.75 103.781 185.688L180.484 256L103.781 326.312C94.016 335.25 93.359 350.437 102.312 360.219C107.047 365.375 113.516 368 120 368C125.797 368 131.609 365.906 136.219 361.688L232.219 273.688C237.172 269.156 240 262.719 240 256ZM392 336H248C234.75 336 224 346.75 224 360S234.75 384 248 384H392C405.25 384 416 373.25 416 360S405.25 336 392 336Z"/></svg>

<svg xmlns="http://www.w3.org/2000/svg" viewBox="0 0 512 512"><!--! Font Awesome Pro 6.6.0 by @fontawesome - https://fontawesome.com License - https://fontawesome.com/license (Commercial License) Copyright 2024 Fonticons, Inc. --><path d="M448 80c8.8 0 16 7.2 16 16l0 320c0 8.8-7.2 16-16 16L64 432c-8.8 0-16-7.2-16-16L48 96c0-8.8 7.2-16 16-16l384 0zM64 32C28.7 32 0 60.7 0 96L0 416c0 35.3 28.7 64 64 64l384 0c35.3 0 64-28.7 64-64l0-320c0-35.3-28.7-64-64-64L64 32zm38.3 119.8c-9 9.8-8.3 25 1.5 33.9L180.5 256l-76.7 70.3c-9.8 9-10.4 24.1-1.5 33.9s24.1 10.4 33.9 1.5l96-88c5-4.5 7.8-11 7.8-17.7s-2.8-13.1-7.8-17.7l-96-88c-9.8-9-25-8.3-33.9 1.5zM248 336c-13.3 0-24 10.7-24 24s10.7 24 24 24l144 0c13.3 0 24-10.7 24-24s-10.7-24-24-24l-144 0z"/></svg>
